src/24/actions/format-segment-line.svg

<svg xmlns="http://www.w3.org/2000/svg" viewBox="0 0 24 24"><path d="M17 4v3h3V4h-3zm1 1h1v1h-1V5zM4 17v3h3v-3H4zm1 1h1v1H5v-1z" fill="currentColor" color="#5d656b"/><path d="M17 6.313L6.312 17H7v.688L17.688 7H17v-.688z" fill="currentColor" color="#3daee9"/></svg>

<svg xmlns="http://www.w3.org/2000/svg" viewBox="0 0 24 24">
  <defs id="defs3051">
    <style type="text/css" id="current-color-scheme">
      .ColorScheme-Text {
        color:#5d656b;
      }
      .ColorScheme-Highlight {
        color:#3daee9;
      }
      </style>
  </defs>
 <path 
     style="fill:currentColor;fill-opacity:1;stroke:none" 
     d="M 17 4 L 17 5 L 17 6 L 17 7 L 20 7 L 20 4 L 17 4 z M 18 5 L 19 5 L 19 6 L 18 6 L 18 5 z M 4 17 L 4 20 L 7 20 L 7 17 L 6 17 L 5 17 L 4 17 z M 5 18 L 6 18 L 6 19 L 5 19 L 5 18 z "
     class="ColorScheme-Text"
     />
 <path 
     style="fill:currentColor;fill-opacity:1;stroke:none" 
     d="M 17 6.3125 L 6.3125 17 L 7 17 L 7 17.6875 L 17.6875 7 L 17 7 L 17 6.3125 z "
     class="ColorScheme-Highlight"
     />
</svg>
